img/advantages__seo-report.svg

<svg width="160" height="160" viewBox="0 0 160 160" fill="none" xmlns="http://www.w3.org/2000/svg">
<path d="M145 60C145 59.337 144.737 58.7011 144.268 58.2322C143.799 57.7634 143.163 57.5 142.5 57.5H100V17.5C100 16.837 99.7366 16.2011 99.2678 15.7322C98.7989 15.2634 98.163 15 97.5 15C94.9865 15.0135 92.4783 15.2309 90 15.65V7.5C90 6.83696 89.7366 6.20107 89.2678 5.73223C88.7989 5.26339 88.163 5 87.5 5H27.5C26.8372 5.00494 26.2017 5.26451 25.725 5.725L5.725 25.725C5.26451 26.2017 5.00494 26.8372 5 27.5V152.5C5 153.163 5.26339 153.799 5.73223 154.268C6.20107 154.737 6.83696 155 7.5 155H87.5C88.163 155 88.7989 154.737 89.2678 154.268C89.7366 153.799 90 153.163 90 152.5V109.35C92.4783 109.769 94.9865 109.987 97.5 110C110.094 109.989 122.17 104.981 131.075 96.0751C139.981 87.1696 144.989 75.0943 145 62.5C145 61.825 144.975 61.15 144.95 60.475C144.98 60.3184 144.997 60.1595 145 60ZM95 20.075V58.975L64.6 89.375C59.6424 83.3145 56.4565 76.0016 55.394 68.2441C54.3315 60.4866 55.4339 52.5864 58.5793 45.4161C61.7247 38.2457 66.7908 32.0843 73.218 27.6123C79.6452 23.1404 87.1834 20.5319 95 20.075ZM25 13.525V25H13.525L25 13.525ZM85 150H10V30H27.5C28.163 30 28.7989 29.7366 29.2678 29.2678C29.7366 28.7989 30 28.163 30 27.5V10H85V16.725C74.9495 19.454 66.0766 25.415 59.7505 33.6878C53.4245 41.9607 49.997 52.0856 49.997 62.5C49.997 72.9144 53.4245 83.0393 59.7505 91.3122C66.0766 99.585 74.9495 105.546 85 108.275V150ZM97.5 105C86.4828 105 75.8997 100.704 68 93.025L98.525 62.5H140C139.984 73.7668 135.501 84.5676 127.535 92.5345C119.568 100.501 108.767 104.984 97.5 105Z" fill="#1E89E3"/>
<path d="M107.5 52.5H152.5V52.485C152.833 52.4775 153.161 52.4031 153.464 52.2663C153.768 52.1294 154.041 51.9329 154.267 51.6885C154.493 51.4441 154.667 51.1567 154.78 50.8434C154.893 50.5301 154.941 50.1974 154.923 49.865C154.259 37.7392 148.973 26.3291 140.151 17.9833C131.329 9.63739 119.644 4.99084 107.5 5.00001C106.837 5.00001 106.201 5.26341 105.732 5.73225C105.263 6.20109 105 6.83697 105 7.50001V50C105 50.6631 105.263 51.2989 105.732 51.7678C106.201 52.2366 106.837 52.5 107.5 52.5ZM149.705 47.5H110V10.0725C119.961 10.6516 129.4 14.7201 136.66 21.5641C143.921 28.4082 148.539 37.5906 149.705 47.5Z" fill="#1E89E3"/>
<path d="M47.5 100C43.0499 100 38.6998 101.32 34.9997 103.792C31.2996 106.264 28.4157 109.778 26.7127 113.89C25.0097 118.001 24.5642 122.525 25.4323 126.89C26.3005 131.254 28.4434 135.263 31.5901 138.41C34.7368 141.557 38.7459 143.7 43.1105 144.568C47.475 145.436 51.9991 144.99 56.1104 143.287C60.2217 141.584 63.7357 138.7 66.2081 135C68.6804 131.3 70 126.95 70 122.5C69.9908 116.535 67.6172 110.818 63.3997 106.6C59.1821 102.383 53.4645 100.009 47.5 100ZM47.5 140C44.0388 140 40.6554 138.974 37.7775 137.051C34.8997 135.128 32.6567 132.395 31.3321 129.197C30.0076 125.999 29.661 122.481 30.3363 119.086C31.0115 115.691 32.6782 112.573 35.1256 110.126C37.5731 107.678 40.6913 106.011 44.0859 105.336C47.4806 104.661 50.9993 105.008 54.197 106.332C57.3947 107.657 60.1278 109.9 62.0507 112.778C63.9737 115.655 65 119.039 65 122.5C64.9947 127.14 63.1493 131.588 59.8685 134.869C56.5878 138.149 52.1397 139.995 47.5 140Z" fill="#1E89E3"/>
<path d="M55 127.5C54.992 129.046 54.5078 130.553 53.6131 131.814C52.7185 133.076 51.4569 134.031 50 134.55V137.5H45V134.55C43.5431 134.031 42.2815 133.076 41.3869 131.814C40.4922 130.553 40.008 129.046 40 127.5H45C45 127.994 45.1466 128.478 45.4213 128.889C45.696 129.3 46.0865 129.62 46.5433 129.81C47.0001 129.999 47.5028 130.048 47.9877 129.952C48.4727 129.856 48.9181 129.617 49.2678 129.268C49.6174 128.918 49.8555 128.473 49.952 127.988C50.0484 127.503 49.9989 127 49.8097 126.543C49.6205 126.086 49.3 125.696 48.8889 125.421C48.4778 125.147 47.9945 125 47.5 125C45.7411 124.986 44.043 124.355 42.7025 123.216C41.362 122.077 40.4644 120.504 40.1665 118.77C39.8686 117.037 40.1895 115.254 41.0731 113.733C41.9566 112.212 43.3466 111.05 45 110.45V107.5H50V110.45C51.4569 110.969 52.7185 111.924 53.6131 113.186C54.5078 114.447 54.992 115.954 55 117.5H50C50 117.006 49.8534 116.522 49.5787 116.111C49.304 115.7 48.9135 115.38 48.4567 115.19C47.9999 115.001 47.4972 114.952 47.0123 115.048C46.5273 115.144 46.0819 115.383 45.7322 115.732C45.3826 116.082 45.1445 116.527 45.048 117.012C44.9516 117.497 45.0011 118 45.1903 118.457C45.3795 118.914 45.7 119.304 46.1111 119.579C46.5222 119.853 47.0055 120 47.5 120C49.4873 120.006 51.3915 120.798 52.7967 122.203C54.202 123.608 54.9941 125.513 55 127.5Z" fill="#1E89E3"/>
<path d="M20 40H45V45H20V40Z" fill="#1E89E3"/>
<path d="M20 55H45V60H20V55Z" fill="#1E89E3"/>
<path d="M20 70H45V75H20V70Z" fill="#1E89E3"/>
<path d="M20 85H45V90H20V85Z" fill="#1E89E3"/>
<path d="M100 120H110V125H100V120Z" fill="#1E89E3"/>
<path d="M115 120H155V125H115V120Z" fill="#1E89E3"/>
<path d="M100 135H110V140H100V135Z" fill="#1E89E3"/>
<path d="M115 135H155V140H115V135Z" fill="#1E89E3"/>
<path d="M100 150H110V155H100V150Z" fill="#1E89E3"/>
<path d="M115 150H155V155H115V150Z" fill="#1E89E3"/>
</svg>

<svg width="160" height="160" viewBox="0 0 160 160" fill="none" xmlns="http://www.w3.org/2000/svg"><path d="M145 60a2.5 2.5 0 00-2.5-2.5H100v-40a2.5 2.5 0 00-2.5-2.5c-2.513.014-5.022.23-7.5.65V7.5A2.5 2.5 0 0087.5 5h-60a2.582 2.582 0 00-1.775.725l-20 20A2.582 2.582 0 005 27.5v125a2.5 2.5 0 002.5 2.5h80a2.5 2.5 0 002.5-2.5v-43.15c2.478.419 4.987.637 7.5.65A47.54 47.54 0 00145 62.5c0-.675-.025-1.35-.05-2.025.03-.157.047-.316.05-.475zM95 20.075v38.9l-30.4 30.4a42.477 42.477 0 0130.4-69.3zm-70-6.55V25H13.525L25 13.525zM85 150H10V30h17.5a2.5 2.5 0 002.5-2.5V10h55v6.725a47.433 47.433 0 000 91.55V150zm12.5-45A42.323 42.323 0 0168 93.025L98.525 62.5H140A42.563 42.563 0 0197.5 105z" fill="#1E89E3"/><path d="M107.5 52.5h45v-.015a2.479 2.479 0 002.28-1.642c.113-.313.161-.646.143-.978A47.459 47.459 0 00107.5 5a2.5 2.5 0 00-2.5 2.5V50a2.5 2.5 0 002.5 2.5zm42.205-5H110V10.072A42.458 42.458 0 01149.705 47.5zM47.5 100a22.503 22.503 0 00-22.068 26.89 22.503 22.503 0 0030.678 16.397A22.502 22.502 0 0070 122.5 22.536 22.536 0 0047.5 100zm0 40A17.5 17.5 0 1165 122.5 17.52 17.52 0 0147.5 140z" fill="#1E89E3"/><path d="M55 127.5a7.524 7.524 0 01-5 7.05v2.95h-5v-2.95a7.523 7.523 0 01-5-7.05h5a2.501 2.501 0 102.5-2.5 7.5 7.5 0 01-2.5-14.55v-2.95h5v2.95a7.523 7.523 0 015 7.05h-5a2.501 2.501 0 10-2.5 2.5 7.523 7.523 0 017.5 7.5zM20 40h25v5H20v-5zm0 15h25v5H20v-5zm0 15h25v5H20v-5zm0 15h25v5H20v-5zm80 35h10v5h-10v-5zm15 0h40v5h-40v-5zm-15 15h10v5h-10v-5zm15 0h40v5h-40v-5zm-15 15h10v5h-10v-5zm15 0h40v5h-40v-5z" fill="#1E89E3"/></svg>
